shader_type canvas_item;

uniform float time_scale = 20; // How fast to animate the blinking
uniform float gb_ceil = 0.75; // Max color green and blue can reach

void fragment() {
	// Called for every pixel the material is visible on.
	float time_cycle = sin(TIME * time_scale);
	vec4 tex_color = texture(TEXTURE, UV);
	COLOR = vec4(
		tex_color.r,
		tex_color.g * time_cycle * gb_ceil,
		tex_color.b * time_cycle * gb_ceil,
		tex_color.a);
}